usr/share/icons/biglinux-icons-material-dark/16/actions/kontact-import-wizard.svg

<svg xmlns="http://www.w3.org/2000/svg" viewBox="0 0 16 16">
<defs>
<style id="current-color-scheme" type="text/css">
.ColorScheme-Text{color:#dedede}
</style>
</defs>
<path d="M3 2v2H2v2h1v4H2v2h1v2h5v-1H6V3h7v8H9.9l1.6-1.6-.7-.728L8 11.5l2.8 2.8.7-.7L9.9 12H14V2zm1 1h1v10H4z" class="ColorScheme-Text" style="fill:currentColor;fill-opacity:1;stroke:none"/>
</svg>

<svg viewBox="0 0 16 16" version="1.1" xmlns="http://www.w3.org/2000/svg">
    <defs>
        <style type="text/css" id="current-color-scheme">
            .ColorScheme-Text {
                color:#dedede;
            }
        </style>
    </defs>
    <path class="ColorScheme-Text" style="fill:currentColor; fill-opacity:1; stroke:none" d="M 3 2 L 3 4 L 2 4 L 2 6 L 3 6 L 3 10 L 2 10 L 2 12 L 3 12 L 3 14 L 8 14 L 8 13 L 6 13 L 6 3 L 13 3 L 13 11 L 9.9 11 L 11.5 9.4 L 10.8 8.671875 L 8 11.5 L 10.8 14.3 L 11.5 13.6 L 9.9 12 L 14 12 L 14 2 L 3 2 z M 4 3 L 5 3 L 5 13 L 4 13 L 4 3 z "/>
</svg>
